app/assets/images/social.svg

<svg width="28" height="25" viewBox="0 0 28 25" fill="none" xmlns="http://www.w3.org/2000/svg">
<path d="M19.6923 7H25.5385C26.3456 7 27 7.63426 27 8.41667V24L22.1283 20.077C21.8659 19.8657 21.5355 19.75 21.1943 19.75H9.46154C8.65435 19.75 8 19.1157 8 18.3333V14.0833" stroke="#01049B" stroke-width="2" stroke-linecap="round" stroke-linejoin="round"/>
<path d="M18.5385 1H2.46154C1.65435 1 1 1.63426 1 2.41667V18L5.87172 14.077C6.13413 13.8657 6.46453 13.75 6.80568 13.75H18.5385C19.3456 13.75 20 13.1157 20 12.3333V2.41667C20 1.63426 19.3456 1 18.5385 1Z" stroke="#01049B" stroke-width="2" stroke-linecap="round" stroke-linejoin="round"/>
</svg>

<svg width="28" height="25" fill="none" xmlns="http://www.w3.org/2000/svg"><path d="M19.692 7h5.846C26.346 7 27 7.634 27 8.417V24l-4.872-3.923a1.49 1.49 0 00-.934-.327H9.462C8.654 19.75 8 19.116 8 18.333v-4.25" stroke="#01049B" stroke-width="2" stroke-linecap="round" stroke-linejoin="round"/><path d="M18.538 1H2.462C1.654 1 1 1.634 1 2.417V18l4.872-3.923a1.49 1.49 0 01.934-.327h11.732c.808 0 1.462-.634 1.462-1.417V2.417C20 1.634 19.346 1 18.538 1z" stroke="#01049B" stroke-width="2" stroke-linecap="round" stroke-linejoin="round"/></svg>
